svg/icon/eth.svg

<svg height="32" viewBox="0 0 32 32" width="32" xmlns="http://www.w3.org/2000/svg" xmlns:xlink="http://www.w3.org/1999/xlink"><defs><linearGradient id="a" x1="50%" x2="50%" y1="0%" y2="100%"><stop offset="0" stop-color="#fff" stop-opacity=".5"/><stop offset="1" stop-opacity=".5"/></linearGradient><circle id="b" cx="16" cy="15" r="15"/><filter id="c" height="111.7%" width="111.7%" x="-5.8%" y="-4.2%"><feOffset dy=".5" in="SourceAlpha" result="shadowOffsetOuter1"/><feGaussianBlur in="shadowOffsetOuter1" result="shadowBlurOuter1" stdDeviation=".5"/><feComposite in="shadowBlurOuter1" in2="SourceAlpha" operator="out" result="shadowBlurOuter1"/><feColorMatrix in="shadowBlurOuter1" values="0 0 0 0 0   0 0 0 0 0   0 0 0 0 0  0 0 0 0.199473505 0"/></filter><path id="d" d="m16.4977734 20.9675435 7.5021739-4.3510485-7.5022266 10.3781295-.0001034-.0002967-7.4976173-10.3779134 7.4977734 4.3510791zm-.0000263-17.96750053 7.497747 12.21981313-7.4977207 4.3532356-7.4977734-4.3532356z"/><filter id="e" height="114.6%" width="123.3%" x="-11.7%" y="-5.2%"><feOffset dy=".5" in="SourceAlpha" result="shadowOffsetOuter1"/><feGaussianBlur in="shadowOffsetOuter1" result="shadowBlurOuter1" stdDeviation=".5"/><feComposite in="shadowBlurOuter1" in2="SourceAlpha" operator="out" result="shadowBlurOuter1"/><feColorMatrix in="shadowBlurOuter1" values="0 0 0 0 0   0 0 0 0 0   0 0 0 0 0  0 0 0 0.204257246 0"/></filter></defs><g fill="none" fill-rule="evenodd"><use fill="#000" filter="url(#c)" xlink:href="#b"/><use fill="#627eea" xlink:href="#b"/><use fill="url(#a)" xlink:href="#b"/><circle cx="16" cy="15" r="14.5" stroke="#000" stroke-opacity=".097"/><g fill-rule="nonzero"><g><use fill="#000" filter="url(#e)" xlink:href="#d"/><use fill="none" xlink:href="#d"/></g><g fill="#fff" transform="translate(9 3)"><path d="m7.498 0v8.87l7.497 3.35z" fill-opacity=".602"/><path d="m7.498 0-7.498 12.22 7.498-3.35z"/><path d="m7.498 17.968v6.027l7.502-10.379z" fill-opacity=".602"/><path d="m7.498 23.995v-6.028l-7.498-4.351z"/><path d="m7.498 16.573 7.497-4.353-7.497-3.348z" fill-opacity=".2"/><path d="m0 12.22 7.498 4.353v-7.701z" fill-opacity=".602"/></g></g></g></svg>

<svg xmlns="http://www.w3.org/2000/svg" xmlns:xlink="http://www.w3.org/1999/xlink" width="32" height="32" viewBox="0 0 32 32">
  <defs>
    <linearGradient id="eth-c" x1="50%" x2="50%" y1="0%" y2="100%">
      <stop offset="0%" stop-color="#FFF" stop-opacity=".5"/>
      <stop offset="100%" stop-opacity=".5"/>
    </linearGradient>
    <circle id="eth-b" cx="16" cy="15" r="15"/>
    <filter id="eth-a" width="111.7%" height="111.7%" x="-5.8%" y="-4.2%" filterUnits="objectBoundingBox">
      <feOffset dy=".5" in="SourceAlpha" result="shadowOffsetOuter1"/>
      <feGaussianBlur in="shadowOffsetOuter1" result="shadowBlurOuter1" stdDeviation=".5"/>
      <feComposite in="shadowBlurOuter1" in2="SourceAlpha" operator="out" result="shadowBlurOuter1"/>
      <feColorMatrix in="shadowBlurOuter1" values="0 0 0 0 0   0 0 0 0 0   0 0 0 0 0  0 0 0 0.199473505 0"/>
    </filter>
    <path id="eth-e" d="M16.4977734,20.9675435 L23.9999473,16.616495 L16.4977207,26.9946245 L16.4976173,26.9943278 L9,16.6164144 L16.4977734,20.9674935 Z M16.4977471,3.00004297 L23.9954941,15.2198561 L16.4977734,19.5730917 L9,15.2198561 L16.4977471,3.00004297 Z"/>
    <filter id="eth-d" width="123.3%" height="114.6%" x="-11.7%" y="-5.2%" filterUnits="objectBoundingBox">
      <feOffset dy=".5" in="SourceAlpha" result="shadowOffsetOuter1"/>
      <feGaussianBlur in="shadowOffsetOuter1" result="shadowBlurOuter1" stdDeviation=".5"/>
      <feComposite in="shadowBlurOuter1" in2="SourceAlpha" operator="out" result="shadowBlurOuter1"/>
      <feColorMatrix in="shadowBlurOuter1" values="0 0 0 0 0   0 0 0 0 0   0 0 0 0 0  0 0 0 0.204257246 0"/>
    </filter>
  </defs>
  <g fill="none" fill-rule="evenodd">
    <use fill="#000" filter="url(#eth-a)" xlink:href="#eth-b"/>
    <use fill="#627EEA" xlink:href="#eth-b"/>
    <use fill="url(#eth-c)" style="mix-blend-mode:soft-light" xlink:href="#eth-b"/>
    <circle cx="16" cy="15" r="14.5" stroke="#000" stroke-opacity=".097"/>
    <g fill-rule="nonzero">
      <use fill="#000" filter="url(#eth-d)" xlink:href="#eth-e"/>
      <use fill="#FFF" fill-opacity="0" fill-rule="evenodd" xlink:href="#eth-e"/>
    </g>
    <g fill="#FFF" fill-rule="nonzero" transform="translate(9 3)">
      <polygon fill-opacity=".602" points="7.498 0 7.498 8.87 14.995 12.22"/>
      <polygon points="7.498 0 0 12.22 7.498 8.87"/>
      <polygon fill-opacity=".602" points="7.498 17.968 7.498 23.995 15 13.616"/>
      <polygon points="7.498 23.995 7.498 17.967 0 13.616"/>
      <polygon fill-opacity=".2" points="7.498 16.573 14.995 12.22 7.498 8.872"/>
      <polygon fill-opacity=".602" points="0 12.22 7.498 16.573 7.498 8.872"/>
    </g>
  </g>
</svg>
